icons/calendar-date-29.svg

<svg
  xmlns="http://www.w3.org/2000/svg"
  viewBox="0 0 500 500"
  width="500"
  height="500"
  fill="#ffffff"
>
  <path d="M382.5 47.2h-16.7V5h-24.4v42.2H158.6V5h-24.4v42.2h-16.7a91.5 91.5 0 0 0-91.4 91.4v265a91.5 91.5 0 0 0 91.4 91.4h265a91.5 91.5 0 0 0 91.4-91.4v-265a91.5 91.5 0 0 0-91.4-91.4zm67 356.4a67.1 67.1 0 0 1-67 67h-265a67.1 67.1 0 0 1-67-67v-265c0-2.2.1-4.3.3-6.4h398.4c.2 2.1.3 4.2.3 6.4z" />
  <path
    data-name="2"
    d="M139.2 373.5l16.5-15.1c43.3-41.8 70.9-72.5 70.9-110.5 0-29.4-18.7-59.7-63-59.7a90.3 90.3 0 0 0-58.2 20.8l8.8 19.7c9.5-8 25-17.5 43.7-17.5 30.7 0 40.8 19.3 40.8 40.2-.3 31-24 57.6-76.5 107.6l-21.9 21.2v17.1h131.3v-23.1h-92.4z"
  />
  <path
    data-name="9"
    d="M331.6 188.2c-42.1 0-70.3 34.1-70.3 73 0 35.2 23.8 63 60.8 63 20.5 0 37-8.2 48.4-22.2h.9c-3.8 24.4-13.6 42.4-27.2 54.8-11.7 11-26.9 17.7-43 19.9-9.5 1-16.4 1.6-22.5 1v22.7a130.5 130.5 0 0 0 25.7-1.6c22.1-2.5 43.9-12 59.8-27.5 20.2-19.6 35.4-51.2 35.4-96.5 0-52.5-26-86.6-68-86.6zm37.3 93.3c-7.3 12.3-21.8 21.5-40.5 21.5-24 0-39.5-18-39.5-43.7 0-29.1 16.7-49.9 40.5-49.9 29.1 0 42 26.8 42 62a18.4 18.4 0 0 1-2.5 10.1z"
  />
</svg>

<svg xmlns="http://www.w3.org/2000/svg" viewBox="0 0 500 500">
  <g id="calendar-date-29">
    <path id="outline" d="M382.5,47.2H365.8V5H341.4V47.2H158.6V5H134.2V47.2H117.5a91.5,91.5,0,0,0-91.4,91.4v265A91.5,91.5,0,0,0,117.5,495h265a91.5,91.5,0,0,0,91.4-91.4v-265A91.5,91.5,0,0,0,382.5,47.2Zm67,356.4a67.1,67.1,0,0,1-67,67h-265a67.1,67.1,0,0,1-67-67v-265c0-2.2.1-4.3.3-6.4H449.2c.2,2.1.3,4.2.3,6.4Z"/>
    <path id="_2" data-name="2" d="M139.2,373.5l16.5-15.1c43.3-41.8,70.9-72.5,70.9-110.5,0-29.4-18.7-59.7-63-59.7A90.3,90.3,0,0,0,105.4,209l8.8,19.7c9.5-8,25-17.5,43.7-17.5,30.7,0,40.8,19.3,40.8,40.2-.3,31-24,57.6-76.5,107.6l-21.9,21.2v17.1H231.6V374.2H139.2Z"/>
    <path id="_9" data-name="9" d="M331.6,188.2c-42.1,0-70.3,34.1-70.3,73,0,35.2,23.8,63,60.8,63,20.5,0,37-8.2,48.4-22.2h.9c-3.8,24.4-13.6,42.4-27.2,54.8-11.7,11-26.9,17.7-43,19.9-9.5,1-16.4,1.6-22.5,1v22.7a130.5,130.5,0,0,0,25.7-1.6c22.1-2.5,43.9-12,59.8-27.5,20.2-19.6,35.4-51.2,35.4-96.5C399.6,222.3,373.6,188.2,331.6,188.2Zm37.3,93.3c-7.3,12.3-21.8,21.5-40.5,21.5-24,0-39.5-18-39.5-43.7,0-29.1,16.7-49.9,40.5-49.9,29.1,0,42,26.8,42,62A18.4,18.4,0,0,1,368.9,281.5Z"/>
  </g>
</svg>
